X:26
T:Country Dance. RDO.26
M:4/4
L:1/8
Q:1/2=90
S:Robert D. Owen MS,Indiana,1826.
R:.Reel
O:Indiana,USA
A:New Harmony
Z:vmp.Chris Partington
K:D
d2 fa dafa|A2ce Aece|d2 fa dafa|bd’c’e’ d’/d’/d’ d’2:|!
|:d2fd gefd|(gf)ed (cd)ef|d2fd gfgb|afge d/d/dd2|!
d2fd gefd|(gf)ed (cd)ef|dcBA BAFA|Bdce d/d/dd2:|

